X:2
T:Commerce Hornpipe. WM.002
M:4/4
L:1/8
Q:1/2=90
S:Wm.Mittell’s MS, New Romney,Kent,1799
R:.Hornpipe
O:England
A:Kent
Z:vmp.Chris Partington
K:G
B|GDGB GDGB|dBgd A3B|GDGB GDGB|dcBA G2G2:|!
|:gabgd2d2|gabge2e2|gbeg dBgB|AGAB G2G2:|

